icons/mortar-board-24.svg

<svg width="24" height="24" viewBox="0 0 24 24" fill="none" xmlns="http://www.w3.org/2000/svg">
<path fill-rule="evenodd" clip-rule="evenodd" d="M12.2917 2.05906C12.1052 1.98031 11.8948 1.98031 11.7083 2.05906L0.458271 6.80906C0.180526 6.92633 0 7.19851 0 7.5C0 7.80149 0.180526 8.07367 0.458271 8.19094L4.25 9.79189V13.5955C3.76381 13.7216 3.30237 13.9729 2.9228 14.3524C2.34402 14.9312 2 15.7627 2 16.7811V21.2811C2 21.5304 2.12795 21.7681 2.33509 21.9059C2.39421 21.9451 2.45249 21.9787 2.55517 22.0301C2.67876 22.0919 2.85216 22.1683 3.07529 22.2427C3.52261 22.3918 4.1651 22.5312 5 22.5312C5.83487 22.5312 6.47733 22.3919 6.92463 22.2428C7.14776 22.1684 7.32115 22.0921 7.44474 22.0303C7.54157 21.9819 7.59819 21.9487 7.65465 21.9128C7.86613 21.7752 8 21.5344 8 21.2813V16.7813C8 15.7629 7.65599 14.9313 7.07721 14.3525C6.69764 13.9729 6.2362 13.7216 5.75 13.5955V10.4252L11.7083 12.9409C11.8948 13.0197 12.1052 13.0197 12.2917 12.9409L17.5 10.7419V14.7441C17.4774 14.7696 17.4512 14.798 17.4213 14.8288C17.2597 14.9949 16.9876 15.2338 16.572 15.4791C15.7458 15.9667 14.3174 16.5 12 16.5C11.388 16.5 10.8384 16.4628 10.346 16.3992C9.93522 16.3462 9.55922 16.6362 9.50619 17.047C9.45317 17.4578 9.74321 17.8339 10.154 17.8869C10.7132 17.9591 11.3271 18 12 18C14.5576 18 16.2543 17.4083 17.3343 16.7709C17.8718 16.4537 18.2481 16.1301 18.4968 15.8744C18.6402 15.7268 18.7814 15.5683 18.8894 15.3921L18.89 15.3911C18.9619 15.2733 19 15.138 19 15V10.1085L23.5417 8.19094C23.8195 8.07367 24 7.80149 24 7.5C24 7.19851 23.8195 6.92633 23.5417 6.80906L12.2917 2.05906ZM4.99993 15C4.99992 15 4.99995 15 4.99993 15C4.62297 15 4.25546 15.1411 3.98345 15.4131C3.71848 15.6781 3.5 16.1121 3.5 16.7811V20.8027C3.7989 20.9079 4.29726 21.0312 5 21.0312C5.70271 21.0312 6.20108 20.908 6.5 20.8027V16.7813C6.5 16.1122 6.28151 15.6781 6.01654 15.4132C5.74451 15.1411 5.37691 15 4.99993 15ZM12 11.4359L2.67816 7.5L12 3.56411L21.3218 7.5L12 11.4359Z" fill="#24292E"/>
</svg>

<svg xmlns="http://www.w3.org/2000/svg" width="24" height="24" viewBox="0 0 24 24"><path fill-rule="evenodd" d="M12.292 2.06a.75.75 0 00-.584 0L.458 6.81a.75.75 0 000 1.38L4.25 9.793v3.803a2.901 2.901 0 00-1.327.757c-.579.58-.923 1.41-.923 2.43v4.5c0 .248.128.486.335.624.06.04.117.073.22.124.124.062.297.138.52.213.448.149 1.09.288 1.925.288s1.477-.14 1.925-.288c.223-.075.396-.15.52-.213a2.11 2.11 0 00.21-.117A.762.762 0 008 21.28v-4.5c0-1.018-.344-1.85-.923-2.428a2.9 2.9 0 00-1.327-.758v-3.17l5.958 2.516a.75.75 0 00.584 0l5.208-2.2v4.003a2.552 2.552 0 01-.079.085 4.057 4.057 0 01-.849.65c-.826.488-2.255 1.021-4.572 1.021-.612 0-1.162-.037-1.654-.1a.75.75 0 00-.192 1.487c.56.072 1.173.113 1.846.113 2.558 0 4.254-.592 5.334-1.23.538-.316.914-.64 1.163-.896a2.84 2.84 0 00.392-.482h.001A.75.75 0 0019 15v-4.892l4.542-1.917a.75.75 0 000-1.382l-11.25-4.75zM5 15c-.377 0-.745.141-1.017.413-.265.265-.483.7-.483 1.368v4.022c.299.105.797.228 1.5.228s1.201-.123 1.5-.228V16.78c0-.669-.218-1.103-.483-1.368A1.431 1.431 0 005 15zm7-3.564L2.678 7.5 12 3.564 21.322 7.5 12 11.436z"/></svg>
